www/assets/icons/directions_off.svg

<svg width="24" height="24" viewBox="0 0 24 24" xmlns="http://www.w3.org/2000/svg" fill='currentColor'><path d="M13.1325 9.69738H13.8025V7.19738L17.3025 10.6974L15.7125 12.2874L19.1325 15.6974L21.7225 13.1074C22.5025 12.3274 22.5025 11.0574 21.7225 10.2774L13.7325 2.27738C12.9525 1.49738 11.6825 1.49738 10.9025 2.27738L8.30251 4.86738L13.1325 9.69738ZM3.1125 2.50738L1.6925 3.91738L5.47251 7.69738L2.8825 10.2874C2.1025 11.0674 2.1025 12.3374 2.8825 13.1174L10.8925 21.1174C11.6725 21.8974 12.9425 21.8974 13.7225 21.1174L16.3025 18.5274L20.0825 22.3074L21.4925 20.8974L3.1125 2.50738ZM10.3025 14.6974H8.30251V10.6974C8.30251 10.6474 8.3225 10.6074 8.3325 10.5574L10.3025 12.5274V14.6974Z"/></svg>

<svg xmlns="http://www.w3.org/2000/svg" width="24" height="24" viewBox="0 0 24 24" fill='currentColor'><path d="M13.133 9.697h.67v-2.5l3.5 3.5-1.59 1.59 3.42 3.41 2.59-2.59c.78-.78.78-2.05 0-2.83l-7.99-8c-.78-.78-2.05-.78-2.83 0l-2.6 2.59zm-10.02-7.19-1.42 1.41 3.78 3.78-2.59 2.59c-.78.78-.78 2.05 0 2.83l8.01 8c.78.78 2.05.78 2.83 0l2.58-2.59 3.78 3.78 1.41-1.41zm7.19 12.19h-2v-4c0-.05.02-.09.03-.14l1.97 1.97z"/></svg>
